public/images/icons/deal-insight-volume.svg

<?xml version="1.0" encoding="UTF-8"?>
<svg viewBox="0 0 411 411" version="1.1" xmlns="http://www.w3.org/2000/svg" xmlns:xlink="http://www.w3.org/1999/xlink">
    <!-- Generator: Sketch 46.2 (44496) - http://www.bohemiancoding.com/sketch -->
    <title>erxes</title>
    <desc>Created with Sketch.</desc>
    <defs></defs>
    <g id="Page-1" stroke="none" stroke-width="1" fill="none" fill-rule="evenodd">
        <g id="Artboard" fill-rule="nonzero">
            <g id="agree" transform="translate(0.000000, 85.000000)">
                <path d="M66,171.428687 L66,197.428687 C65.9706602,207.672687 57.8728792,215.97075 47.8751487,216 L15.2500991,216 C11.2519585,215.988625 8.01110154,212.667937 8,208.571312 L8,15.4286875 C8.01110154,11.3320625 11.2519585,8.011375 15.2500991,8 L58.7499009,8 C62.7480415,8.011375 65.9888985,11.3320625 66,15.4286875 L66,171.428687 Z" id="Shape" fill="#B7AFFE"></path>
                <g id="Group" transform="translate(66.000000, 18.000000)" fill="#FFFFFF">
                    <path d="M148.442431,179.142472 C151.436871,189.786337 146.067724,201.002966 135.944353,205.251775 C133.323517,206.372225 130.505457,206.949034 127.661741,206.953079 C118.894888,206.96036 110.993095,201.631551 107.650707,193.454292 L105.195026,187.462921 C108.346603,198.055011 103.039991,209.333933 92.9174224,213.572225 C90.3190345,214.678112 87.5258276,215.243596 84.7077672,215.236315 C76.0403276,215.243596 68.2227155,209.969798 64.9164052,201.885573 L44.3553879,151.626337 L0.228491379,151.626337 L0.228491379,11.0944719 L128.504353,11.0944719 L64.6598534,73.6689438 C58.9427586,79.4532135 58.9427586,88.8172584 64.6598534,94.6007191 C76.640819,106.694292 96.0657931,106.694292 108.046759,94.608 C108.050767,94.6039551 108.050767,94.6039551 108.053974,94.6007191 L135.981233,64.5710562 C139.415017,61.1134382 144.066621,59.1718652 148.918655,59.1718652 L194.401267,59.1718652 L233.947112,159.024539 C238.473647,170.144899 233.272862,182.871101 222.292448,187.538157 C219.653974,188.64 216.827897,189.216809 213.972957,189.239461 C205.187664,189.243506 197.275448,183.876674 193.961922,175.667056 L191.506241,169.898157 C194.717147,180.634247 189.343991,192.076584 179.081922,196.377169 C176.443448,197.479011 173.617371,198.05582 170.762431,198.078472 C161.966716,198.082517 154.042474,192.71973 150.714517,184.506067 L148.442431,179.142472 Z" id="Shape"></path>
                    <path d="M278.770707,33.2842247 L278.770707,173.816899 L234.606931,173.816899 C236.127802,168.961348 235.893698,163.720719 233.947112,159.02373 L194.402069,59.1718652 L148.919457,59.1718652 C144.066621,59.1718652 139.415819,61.1134382 135.982034,64.5710562 L108.054776,94.6007191 C96.0738103,106.694292 76.6488362,106.694292 64.6678707,94.608 C64.6638621,94.6039551 64.6638621,94.6039551 64.6606552,94.6007191 C58.9435603,88.8164494 58.9435603,79.4524045 64.6606552,73.6689438 L126.672414,12.9438202 L135.211578,4.3272809 C137.963897,1.55325843 141.695121,-0.00323595506 145.583483,-9.8108777e-15 L208.548491,-9.8108777e-15 C212.436853,-0.00404494382 216.168078,1.55325843 218.920397,4.3272809 L240.874009,24.6304719 C246.364216,30.1744719 253.81544,33.2882697 261.581741,33.2842247 L278.770707,33.2842247 Z" id="Shape"></path>
                </g>
                <path d="M402,15.4286875 L402,208.571312 C401.988898,212.667937 398.748042,215.988625 394.749901,216 L362.124851,216 C352.127121,215.969937 344.028547,207.672687 344,197.428687 L344,15.4286875 C344.011102,11.3320625 347.251958,8.011375 351.250099,8 L394.749901,8 C398.748834,8.0105625 401.988898,11.33125 402,15.4286875 Z" id="Shape" fill="#B7AFFE"></path>
                <g id="Group" fill="#5629B6">
                    <path d="M95.178457,37.1150301 L65.8930859,37.1150301 C61.851543,37.1150301 58.571543,33.7998729 58.571543,29.71501 C58.571543,25.6301472 61.851543,22.31499 65.8930859,22.31499 L95.178457,22.31499 C99.22,22.31499 102.5,25.6301472 102.5,29.71501 C102.5,33.7998729 99.22,37.1150301 95.178457,37.1150301 Z" id="Shape"></path>
                    <path d="M193.834707,37.1150301 L131.785371,37.1150301 C127.743828,37.1150301 124.463828,33.7998729 124.463828,29.71501 C124.463828,25.6301472 127.743828,22.31499 131.785371,22.31499 L193.834707,22.31499 C197.87625,22.31499 201.15625,25.6301472 201.15625,29.71501 C201.15625,33.7998729 197.880254,37.1150301 193.834707,37.1150301 Z" id="Shape"></path>
                    <path d="M344.106914,199.913043 L299.995078,199.913043 C295.953535,199.913043 292.673535,196.597886 292.673535,192.513023 C292.673535,188.428161 295.953535,185.113003 299.995078,185.113003 L344.106914,185.113003 C348.148457,185.113003 351.428457,188.428161 351.428457,192.513023 C351.428457,196.597886 348.148457,199.913043 344.106914,199.913043 Z" id="Shape"></path>
                    <path d="M109.968086,177.712983 L69.553457,177.712983 C65.5119141,177.712983 62.2319141,174.397826 62.2319141,170.312963 C62.2319141,166.2281 65.5119141,162.912943 69.553457,162.912943 L109.968086,162.912943 C114.009629,162.912943 117.289629,166.2281 117.289629,170.312963 C117.289629,174.397826 114.012832,177.712983 109.968086,177.712983 Z" id="Shape"></path>
                    <path d="M279.429414,215.34196 C267.569043,215.34196 257.07,208.200936 252.618457,197.15311 L250.220918,191.514268 C250.188086,191.436569 250.155254,191.354823 250.125625,191.277124 C248.61375,187.655217 250.180879,183.436809 253.724336,181.727431 C257.290215,180.0221 261.525547,181.457104 263.348125,184.953559 C263.509082,185.253023 263.648418,185.567866 263.765332,185.889993 L266.130039,191.44709 C268.377832,197.026849 273.557285,200.545157 279.378164,200.545157 C279.382168,200.545157 279.385371,200.545157 279.385371,200.545157 C281.251992,200.530589 283.122617,200.149378 284.89875,199.405572 C292.092168,196.342127 295.547539,187.86889 292.567832,180.524716 L275.0075,136.095458 C273.510039,132.299538 275.336621,127.996147 279.089082,126.475351 C282.851953,124.961839 287.105703,126.812047 288.607168,130.600682 L306.138672,174.962763 C312.138926,189.718288 305.150508,206.83392 290.540254,213.053886 C286.974375,214.544736 283.25875,215.307157 279.444629,215.337104 C279.436621,215.34196 279.433418,215.34196 279.429414,215.34196 Z" id="Shape"></path>
                    <path d="M162.389629,68.0465151 C160.482168,68.0465151 158.575508,67.2994716 157.143711,65.8078127 C154.320957,62.8771037 154.387422,58.193311 157.283047,55.3443478 L195.61084,17.6417191 C199.689219,13.5196254 205.201797,11.2145552 211.062715,11.2145552 C211.06752,11.2145552 232.035977,11.2145552 273.968086,11.2145552 C279.843418,11.2145552 285.352793,13.5196254 289.500039,17.708087 L311.204414,37.8021806 C315.571875,42.2091706 321.077246,44.5142408 326.930957,44.5142408 C326.933626,44.5142408 332.658945,44.5142408 344.106914,44.5142408 C348.148457,44.5142408 351.428457,47.829398 351.428457,51.9142609 C351.428457,55.9991237 348.148457,59.3142809 344.106914,59.3142809 L326.938164,59.3142809 C317.163828,59.3142809 307.982871,55.4697993 301.079336,48.4882207 L279.378965,28.3973645 C277.771797,26.784301 275.934004,26.0145953 273.983301,26.0145953 C273.980632,26.0145953 253.012174,26.0145953 211.07793,26.0145953 C209.112012,26.0145953 207.274219,26.784301 205.894473,28.1755987 L167.497012,65.9486421 C166.071621,67.3472241 164.230625,68.0465151 162.389629,68.0465151 Z" id="Shape"></path>
                    <path d="M151.85375,129.691766 C142.137871,129.695813 132.448418,125.950883 125.068418,118.491779 C116.524082,109.82996 116.524082,95.7478261 125.064414,87.0941003 L135.069375,77.2781271 C137.972207,74.4291639 142.607129,74.5028161 145.421875,77.4335251 C148.240625,80.3674716 148.167754,85.0520736 145.268125,87.89699 L135.347246,97.6279799 C132.579746,100.436475 132.579746,105.14293 135.431328,108.035599 C144.516992,117.222696 159.317832,117.218649 168.406699,108.031552 L196.14416,78.1506221 C201.148242,73.1042341 207.57291,70.4139064 214.403574,70.4139064 L259.836699,70.4139064 C262.83082,70.4139064 265.525449,72.2600669 266.634531,75.0685619 L275.640117,97.8602676 C277.137578,101.656187 275.310996,105.959579 271.558535,107.476328 C267.780449,109.000361 263.541914,107.139632 262.040449,103.34695 L254.879863,85.2131371 L214.406777,85.2131371 C211.47832,85.2131371 208.725234,86.367291 206.653613,88.4546421 L178.927363,118.324241 C171.424043,125.913652 161.624082,129.691766 151.85375,129.691766 Z" id="Shape"></path>
                    <path d="M209.425918,206.010796 L207.20375,200.753164 C205.610996,196.990428 207.339082,192.646569 211.058711,191.040789 C214.78875,189.43501 219.079336,191.181619 220.668086,194.93707 L222.934297,200.298301 C225.185293,205.862682 230.379961,209.385037 236.212051,209.385037 C238.101094,209.370468 239.968516,208.989258 241.732637,208.249498 C249.006133,205.189291 252.476719,196.712816 249.452969,189.354074 L225.617715,130.920381 C224.073008,127.143077 225.855547,122.813786 229.593594,121.255759 C233.342051,119.697732 237.614219,121.49614 239.151719,125.277492 L262.982969,183.699853 C269.088926,198.577592 262.074883,215.730455 247.347715,221.916428 C243.829883,223.392709 240.107051,224.15513 236.284922,224.184268 C224.409336,224.185077 213.895879,217.051338 209.425918,206.010796 Z" id="Shape"></path>
                    <path d="M193.16125,233.064615 C181.399375,233.064615 170.904336,225.968107 166.419961,214.979365 L163.971172,208.996542 L163.975176,208.996542 C163.502715,207.856957 163.297715,206.606488 163.407422,205.385157 C163.773379,201.311625 167.375293,198.370395 171.362383,198.681191 C174.298047,198.951518 176.670762,200.938508 177.600469,203.572181 L179.957969,209.325953 C182.17293,214.757599 187.356387,218.261338 193.162051,218.261338 C193.166055,218.261338 193.169258,218.261338 193.173262,218.261338 C195.047891,218.257291 196.870469,217.880127 198.594551,217.143605 C205.893672,214.080161 209.357051,205.632823 206.358926,198.292696 L184.577676,145.017084 C183.036172,141.239779 184.812305,136.914535 188.549551,135.352462 C192.286797,133.802528 196.566172,135.589605 198.11168,139.36691 L219.89293,192.642522 C225.966055,207.50893 218.952012,224.624562 204.257676,230.792729 C200.768672,232.287625 197.027422,233.057331 193.187676,233.060569 C193.179668,233.064615 193.168457,233.064615 193.16125,233.064615 Z" id="Shape"></path>
                    <path d="M150.327461,241.352508 C150.294629,241.352508 150.25459,241.352508 150.228965,241.352508 C138.591211,241.352508 128.187461,234.315084 123.736719,223.415371 L103.199883,173.132789 C101.658379,169.355485 103.434512,165.033478 107.171758,163.472214 C110.909004,161.896381 115.188379,163.709358 116.733887,167.490709 L137.270723,217.773291 C139.448848,223.104575 144.544219,226.553278 150.251387,226.553278 C150.262598,226.553278 150.281016,226.553278 150.298633,226.553278 C152.158047,226.553278 153.937383,226.186635 155.617422,225.472776 C162.788418,222.464368 166.186133,214.165953 163.235254,206.958562 L143.720215,159.147779 C142.178711,155.370475 143.958047,151.045231 147.696094,149.487204 C151.437344,147.911371 155.712715,149.724348 157.254219,153.505699 L176.766055,201.309197 C182.802344,216.038823 175.854766,233.006341 161.274141,239.126756 C157.831582,240.597371 154.130371,241.352508 150.327461,241.352508 Z" id="Shape"></path>
                    <path d="M47.5896289,222.113104 L14.6430859,222.113104 C6.585625,222.090441 0.025625,215.460127 0,207.334916 L0,96.3143813 C0,92.2295184 3.28,88.9143612 7.32154297,88.9143612 C11.3630859,88.9143612 14.6430859,92.2295184 14.6430859,96.3143813 L14.6430859,207.313064 L47.5896289,207.313064 C53.6443359,207.313064 58.571543,202.333043 58.571543,196.213438 L58.571543,148.113712 C58.571543,144.028849 61.851543,140.713692 65.8930859,140.713692 C69.9346289,140.713692 73.2146289,144.028849 73.2146289,148.113712 L73.2146289,196.213438 C73.2146289,210.491438 61.7194141,222.113104 47.5896289,222.113104 Z" id="Shape"></path>
                    <path d="M65.8930859,118.514441 C61.851543,118.514441 58.571543,115.199284 58.571543,111.114421 L58.571543,14.9157793 L14.6430859,14.9157793 L14.6430859,59.3150903 C14.6430859,63.3999532 11.3630859,66.7151104 7.32154297,66.7151104 C3.28,66.7151104 0,63.3999532 0,59.3150903 L0,14.9157793 C0.025625,6.76871572 6.58162109,0.141638796 14.6206641,0.11573913 L58.571543,0.11573913 C66.632207,0.141638796 73.1890039,6.76790635 73.2146289,14.8931171 L73.2146289,111.114421 C73.2146289,115.199284 69.9346289,118.514441 65.8930859,118.514441 Z" id="Shape"></path>
                    <path d="M336.785371,196.213438 L336.785371,159.214147 C336.785371,155.129284 340.065371,151.814127 344.106914,151.814127 C348.148457,151.814127 351.428457,155.129284 351.428457,159.214147 L351.428457,196.213438 C351.428457,202.333043 356.355664,207.313064 362.410371,207.313064 L395.356914,207.313064 L395.356914,77.8147358 C395.356914,73.7298729 398.636914,70.4147157 402.678457,70.4147157 C406.72,70.4147157 410,73.7298729 410,77.8147358 L410,207.313064 C409.978379,215.460127 403.418379,222.090441 395.375332,222.113104 L362.410371,222.113104 C348.283789,222.113104 336.785371,210.491438 336.785371,196.213438 Z" id="Shape"></path>
                    <path d="M344.106914,129.614067 C340.065371,129.614067 336.785371,126.29891 336.785371,122.214047 L336.785371,14.9157793 C336.806992,6.77195318 343.366992,0.141638796 351.406035,0.11573913 L395.356914,0.11573913 C403.417578,0.141638796 409.977578,6.77195318 410,14.8971639 L410,40.8154448 C410,44.9003077 406.72,48.2154649 402.678457,48.2154649 C398.636914,48.2154649 395.356914,44.9003077 395.356914,40.8154448 L395.356914,14.9157793 L351.428457,14.9157793 L351.428457,122.214047 C351.428457,126.29891 348.148457,129.614067 344.106914,129.614067 Z" id="Shape"></path>
                </g>
            </g>
        </g>
    </g>
</svg>

<?xml version="1.0" encoding="utf-8"?>
<!-- Generator: Adobe Illustrator 23.0.3, SVG Export Plug-In . SVG Version: 6.00 Build 0)  -->
<svg version="1.1" id="Layer_1" xmlns="http://www.w3.org/2000/svg" xmlns:xlink="http://www.w3.org/1999/xlink" x="0px" y="0px"
	 viewBox="0 0 411 411" style="enable-background:new 0 0 411 411;" xml:space="preserve">
<style type="text/css">
	.st0{fill:#63D2D6;}
	.st1{display:none;}
	.st2{display:inline;fill:#FFFFFF;}
	.st3{fill:#5629B6;}
</style>
<g id="Page-1">
	<g id="Artboard">
		<g id="agree" transform="translate(0.000000, 85.000000)">
			<path id="Shape" class="st0" d="M66,171.4v26c0,10.2-8.1,18.5-18.1,18.6H15.3c-4,0-7.2-3.3-7.3-7.4V15.4C8,11.3,11.3,8,15.3,8
				h43.5c4,0,7.2,3.3,7.3,7.4V171.4z"/>
			<g id="Group" transform="translate(66.000000, 18.000000)" class="st1">
				<path class="st2" d="M148.4,179.1c3,10.6-2.4,21.9-12.5,26.1c-2.6,1.1-5.4,1.7-8.3,1.7c-8.8,0-16.7-5.3-20-13.5l-2.5-6
					c3.2,10.6-2.2,21.9-12.3,26.1c-2.6,1.1-5.4,1.7-8.2,1.7c-8.7,0-16.5-5.3-19.8-13.4l-20.6-50.3H0.2V11.1h128.3L64.7,73.7
					c-5.7,5.8-5.7,15.1,0,20.9c12,12.1,31.4,12.1,43.4,0c0,0,0,0,0,0l27.9-30c3.4-3.5,8.1-5.4,12.9-5.4h45.5l39.5,99.9
					c4.5,11.1-0.7,23.8-11.7,28.5c-2.6,1.1-5.5,1.7-8.3,1.7c-8.8,0-16.7-5.4-20-13.6l-2.5-5.8c3.2,10.7-2.2,22.2-12.4,26.5
					c-2.6,1.1-5.5,1.7-8.3,1.7c-8.8,0-16.7-5.4-20-13.6L148.4,179.1z"/>
				<path class="st2" d="M278.8,33.3v140.5h-44.2c1.5-4.9,1.3-10.1-0.7-14.8l-39.5-99.9h-45.5c-4.9,0-9.5,1.9-12.9,5.4l-27.9,30
					c-12,12.1-31.4,12.1-43.4,0c0,0,0,0,0,0c-5.7-5.8-5.7-15.1,0-20.9l62-60.7l8.5-8.6C138,1.6,141.7,0,145.6,0h63
					c3.9,0,7.6,1.6,10.4,4.3l22,20.3c5.5,5.5,12.9,8.7,20.7,8.7H278.8z"/>
			</g>
			<path class="st0" d="M402,15.4v193.1c0,4.1-3.3,7.4-7.3,7.4h-32.6c-10,0-18.1-8.3-18.1-18.6v-182c0-4.1,3.3-7.4,7.3-7.4h43.5
				C398.7,8,402,11.3,402,15.4z"/>
			<g>
				<path class="st3" d="M95.2,37.1H65.9c-4,0-7.3-3.3-7.3-7.4s3.3-7.4,7.3-7.4h29.3c4,0,7.3,3.3,7.3,7.4S99.2,37.1,95.2,37.1z"/>
				<path class="st3" d="M193.8,37.1h-62c-4,0-7.3-3.3-7.3-7.4s3.3-7.4,7.3-7.4h62c4,0,7.3,3.3,7.3,7.4S197.9,37.1,193.8,37.1z"/>
				<path class="st3" d="M344.1,199.9H300c-4,0-7.3-3.3-7.3-7.4c0-4.1,3.3-7.4,7.3-7.4h44.1c4,0,7.3,3.3,7.3,7.4
					C351.4,196.6,348.1,199.9,344.1,199.9z"/>
				<path class="st3" d="M110,177.7H69.6c-4,0-7.3-3.3-7.3-7.4c0-4.1,3.3-7.4,7.3-7.4H110c4,0,7.3,3.3,7.3,7.4
					C117.3,174.4,114,177.7,110,177.7z"/>
				<path class="st3" d="M279.4,215.3c-11.9,0-22.4-7.1-26.8-18.2l-2.4-5.6c0-0.1-0.1-0.2-0.1-0.2c-1.5-3.6,0.1-7.8,3.6-9.5
					c3.6-1.7,7.8-0.3,9.6,3.2c0.2,0.3,0.3,0.6,0.4,0.9l2.4,5.6c2.2,5.6,7.4,9.1,13.2,9.1c0,0,0,0,0,0c1.9,0,3.7-0.4,5.5-1.1
					c7.2-3.1,10.6-11.5,7.7-18.9L275,136.1c-1.5-3.8,0.3-8.1,4.1-9.6c3.8-1.5,8,0.3,9.5,4.1l17.5,44.4c6,14.8-1,31.9-15.6,38.1
					C287,214.5,283.3,215.3,279.4,215.3C279.4,215.3,279.4,215.3,279.4,215.3z"/>
				<path class="st3" d="M162.4,68c-1.9,0-3.8-0.7-5.2-2.2c-2.8-2.9-2.8-7.6,0.1-10.5l38.3-37.7c4.1-4.1,9.6-6.4,15.5-6.4
					c0,0,21,0,62.9,0c5.9,0,11.4,2.3,15.5,6.5l21.7,20.1c4.4,4.4,9.9,6.7,15.7,6.7c0,0,5.7,0,17.2,0c4,0,7.3,3.3,7.3,7.4
					s-3.3,7.4-7.3,7.4h-17.2c-9.8,0-19-3.8-25.9-10.8l-21.7-20.1c-1.6-1.6-3.4-2.4-5.4-2.4c0,0-21,0-62.9,0c-2,0-3.8,0.8-5.2,2.2
					l-38.4,37.8C166.1,67.3,164.2,68,162.4,68z"/>
				<path class="st3" d="M151.9,129.7c-9.7,0-19.4-3.7-26.8-11.2c-8.5-8.7-8.5-22.7,0-31.4l10-9.8c2.9-2.8,7.5-2.8,10.4,0.2
					c2.8,2.9,2.7,7.6-0.2,10.5l-9.9,9.7c-2.8,2.8-2.8,7.5,0.1,10.4c9.1,9.2,23.9,9.2,33,0l27.7-29.9c5-5,11.4-7.7,18.3-7.7h45.4
					c3,0,5.7,1.8,6.8,4.7l9,22.8c1.5,3.8-0.3,8.1-4.1,9.6c-3.8,1.5-8-0.3-9.5-4.1l-7.2-18.1h-40.5c-2.9,0-5.7,1.2-7.8,3.2
					l-27.7,29.9C171.4,125.9,161.6,129.7,151.9,129.7z"/>
				<path class="st3" d="M209.4,206l-2.2-5.3c-1.6-3.8,0.1-8.1,3.9-9.7c3.7-1.6,8,0.1,9.6,3.9l2.3,5.4c2.3,5.6,7.4,9.1,13.3,9.1
					c1.9,0,3.8-0.4,5.5-1.1c7.3-3.1,10.7-11.5,7.7-18.9l-23.8-58.4c-1.5-3.8,0.2-8.1,4-9.7c3.7-1.6,8,0.2,9.6,4l23.8,58.4
					c6.1,14.9-0.9,32-15.6,38.2c-3.5,1.5-7.2,2.2-11.1,2.3C224.4,224.2,213.9,217.1,209.4,206z"/>
				<path class="st3" d="M193.2,233.1c-11.8,0-22.3-7.1-26.7-18.1l-2.4-6h0c-0.5-1.1-0.7-2.4-0.6-3.6c0.4-4.1,4-7,8-6.7
					c2.9,0.3,5.3,2.3,6.2,4.9l2.4,5.8c2.2,5.4,7.4,8.9,13.2,8.9c0,0,0,0,0,0c1.9,0,3.7-0.4,5.4-1.1c7.3-3.1,10.8-11.5,7.8-18.9
					L184.6,145c-1.5-3.8,0.2-8.1,4-9.7c3.7-1.5,8,0.2,9.6,4l21.8,53.3c6.1,14.9-0.9,32-15.6,38.2C200.8,232.3,197,233.1,193.2,233.1
					C193.2,233.1,193.2,233.1,193.2,233.1z"/>
				<path class="st3" d="M150.3,241.4C150.3,241.4,150.3,241.4,150.3,241.4c-11.7,0-22.1-7-26.6-17.9l-20.5-50.3
					c-1.5-3.8,0.2-8.1,4-9.7c3.7-1.6,8,0.2,9.6,4l20.5,50.3c2.2,5.3,7.3,8.8,13,8.8c0,0,0,0,0,0c1.9,0,3.6-0.4,5.3-1.1
					c7.2-3,10.6-11.3,7.6-18.5l-19.5-47.8c-1.5-3.8,0.2-8.1,4-9.7c3.7-1.6,8,0.2,9.6,4l19.5,47.8c6,14.7-0.9,31.7-15.5,37.8
					C157.8,240.6,154.1,241.4,150.3,241.4z"/>
				<path class="st3" d="M47.6,222.1H14.6c-8.1,0-14.6-6.7-14.6-14.8v-111c0-4.1,3.3-7.4,7.3-7.4s7.3,3.3,7.3,7.4v111h32.9
					c6.1,0,11-5,11-11.1v-48.1c0-4.1,3.3-7.4,7.3-7.4s7.3,3.3,7.3,7.4v48.1C73.2,210.5,61.7,222.1,47.6,222.1z"/>
				<path class="st3" d="M65.9,118.5c-4,0-7.3-3.3-7.3-7.4V14.9H14.6v44.4c0,4.1-3.3,7.4-7.3,7.4S0,63.4,0,59.3V14.9
					C0,6.8,6.6,0.1,14.6,0.1h44c8.1,0,14.6,6.7,14.6,14.8v96.2C73.2,115.2,69.9,118.5,65.9,118.5z"/>
				<path class="st3" d="M336.8,196.2v-37c0-4.1,3.3-7.4,7.3-7.4c4,0,7.3,3.3,7.3,7.4v37c0,6.1,4.9,11.1,11,11.1h32.9V77.8
					c0-4.1,3.3-7.4,7.3-7.4c4,0,7.3,3.3,7.3,7.4v129.5c0,8.1-6.6,14.8-14.6,14.8h-33C348.3,222.1,336.8,210.5,336.8,196.2z"/>
				<path class="st3" d="M344.1,129.6c-4,0-7.3-3.3-7.3-7.4V14.9c0-8.1,6.6-14.8,14.6-14.8h44c8.1,0,14.6,6.7,14.6,14.8v25.9
					c0,4.1-3.3,7.4-7.3,7.4c-4,0-7.3-3.3-7.3-7.4V14.9h-43.9v107.3C351.4,126.3,348.1,129.6,344.1,129.6z"/>
			</g>
		</g>
	</g>
</g>
</svg>
